**kern	**kern	**dynam
*part1	*part1	*part1
*staff2	*staff1	*
*I"Piano	*	*
*clefF4	*clefG2	*
*k[]	*k[]	*
=1	=1	=1
*	*^	*
4C 4A	4.g	4c 4e-X	.
4C 4A	.	4c 4e-	.
.	8f#X	.	.
4C 4A	4f#	4c 4e-	.
=	=	=	=
!	!LO:TX:a:i:t=dol.	!	!
4C 4A-X	4fn	4c 4d	.
4C 4A-	4.cc	4c 4d	.
4C 4A-	.	4c 4d	.
.	8f	.	.
=	=	=	=
4C 4G	((4.f	4c	.
4C 4G	.	4c	.
.	8en)	.	.
4C 4G	4e	4c	>
*	*v	*v	*
=	=	=
4AA 4A	4c 4e 4a 4cc	.
4AA 4A	4c 4e 4a 4cc	.
4GG 4G	4c 4e 4b-X 4cc	.
=	=	=
!	!LO:TX:b:i:t=decresc.	!
4FF 4F	4a 4cc 4aa	]
4DD 4D	4bn 4ff 4gg 4bbn	.
4CC 4C	4cc) 4ee 4gg 4ccc	.
=	=	=
*^	*	*
4E 4G	2GG	2c 2e	.
!	!	!	!LO:DY:a
4E 4G	.	.	p
4F 4B	4GGG	4d 4g	.
=	=	=	=
4E 4G	4CC 4GG 4C	2.c 2.e	.
!	!	!	!LO:DY:a
4E 4G	4CC 4GG 4C	.	pp
4E 4G	4CC 4GG 4C	.	.
*v	*v	*	*
=	=	=
*-	*-	*-
!!!system-decoration: {(s1,s2)}
